X:1
T:Mug of Brown Ale
M:6/8
L:1/8
R:Jig
K:Ador
|: "Am"eAA fAA | gfg age | "G"dBA GFG | BAB dBd | "Am"eAA fAA | gfg age | "G"dBd gdB | BAG "Am"A3 :|
|: "Am"efg aba | aba age | "G"dBd g3  | gba ged | "Am"efg aba | aba age | "G"dBd gdB | BAG "Am"A3 :|
